Numix-Circle/48x48/apps/liquidwar.svg

<?xml version="1.0" encoding="UTF-8" standalone="no"?>
<svg
   xmlns:dc="http://purl.org/dc/elements/1.1/"
   xmlns:cc="http://creativecommons.org/ns#"
   xmlns:rdf="http://www.w3.org/1999/02/22-rdf-syntax-ns#"
   xmlns:svg="http://www.w3.org/2000/svg"
   xmlns="http://www.w3.org/2000/svg"
   xmlns:xlink="http://www.w3.org/1999/xlink"
   xmlns:sodipodi="http://sodipodi.sourceforge.net/DTD/sodipodi-0.dtd"
   xmlns:inkscape="http://www.inkscape.org/namespaces/inkscape"
   viewBox="0 0 48 48"
   id="svg2"
   version="1.1"
   inkscape:version="0.48.4 r9939"
   width="100%"
   height="100%"
   sodipodi:docname="liquidwar.svg">
  <metadata
     id="metadata73">
    <rdf:RDF>
      <cc:Work
         rdf:about="">
        <dc:format>image/svg+xml</dc:format>
        <dc:type
           rdf:resource="http://purl.org/dc/dcmitype/StillImage" />
      </cc:Work>
    </rdf:RDF>
  </metadata>
  <sodipodi:namedview
     pagecolor="#ffffff"
     bordercolor="#666666"
     borderopacity="1"
     objecttolerance="10"
     gridtolerance="10"
     guidetolerance="10"
     inkscape:pageopacity="0"
     inkscape:pageshadow="2"
     inkscape:window-width="640"
     inkscape:window-height="480"
     id="namedview71"
     showgrid="false"
     inkscape:zoom="4.9166667"
     inkscape:cx="24"
     inkscape:cy="22.372881"
     inkscape:window-x="0"
     inkscape:window-y="0"
     inkscape:window-maximized="0"
     inkscape:current-layer="svg2" />
  <defs
     id="defs4">
    <linearGradient
       id="linearGradient3764"
       x1="1"
       x2="47"
       gradientUnits="userSpaceOnUse"
       gradientTransform="matrix(0,-1,1,0,-1.5e-6,47.999998)">
      <stop
         stop-color="#003774"
         stop-opacity="1"
         id="stop7" />
      <stop
         offset="1"
         stop-color="#004088"
         stop-opacity="1"
         id="stop9" />
    </linearGradient>
    <clipPath
       id="clipPath-735560873">
      <g
         transform="translate(0,-1004.3622)"
         id="g12">
        <path
           d="m -24 13 c 0 1.105 -0.672 2 -1.5 2 -0.828 0 -1.5 -0.895 -1.5 -2 0 -1.105 0.672 -2 1.5 -2 0.828 0 1.5 0.895 1.5 2 z"
           transform="matrix(15.333333,0,0,11.5,414.99999,878.8622)"
           fill="#1890d0"
           id="path14" />
      </g>
    </clipPath>
    <clipPath
       id="clipPath-748498203">
      <g
         transform="translate(0,-1004.3622)"
         id="g17">
        <path
           d="m -24 13 c 0 1.105 -0.672 2 -1.5 2 -0.828 0 -1.5 -0.895 -1.5 -2 0 -1.105 0.672 -2 1.5 -2 0.828 0 1.5 0.895 1.5 2 z"
           transform="matrix(15.333333,0,0,11.5,414.99999,878.8622)"
           fill="#1890d0"
           id="path19" />
      </g>
    </clipPath>
    <linearGradient
       inkscape:collect="always"
       xlink:href="#linearGradient3764"
       id="linearGradient3071"
       gradientUnits="userSpaceOnUse"
       gradientTransform="matrix(0,-1,1,0,-1.5e-6,47.999998)"
       x1="1"
       x2="47" />
    <linearGradient
       inkscape:collect="always"
       xlink:href="#linearGradient3764"
       id="linearGradient3074"
       gradientUnits="userSpaceOnUse"
       gradientTransform="matrix(0,-1,1,0,-1.5e-6,47.999998)"
       x1="1"
       x2="47" />
    <linearGradient
       inkscape:collect="always"
       xlink:href="#linearGradient3764"
       id="linearGradient3077"
       gradientUnits="userSpaceOnUse"
       gradientTransform="matrix(0,-1,1,0,-1.5e-6,47.999998)"
       x1="1"
       x2="47" />
    <linearGradient
       inkscape:collect="always"
       xlink:href="#linearGradient3764"
       id="linearGradient3080"
       gradientUnits="userSpaceOnUse"
       gradientTransform="matrix(0,-1,1,0,-1.5e-6,47.999998)"
       x1="1"
       x2="47" />
    <linearGradient
       inkscape:collect="always"
       xlink:href="#linearGradient3764"
       id="linearGradient3086"
       gradientUnits="userSpaceOnUse"
       gradientTransform="matrix(0,-1,1,0,-1.5e-6,47.999998)"
       x1="1"
       x2="47" />
    <linearGradient
       inkscape:collect="always"
       xlink:href="#linearGradient3764"
       id="linearGradient3093"
       gradientUnits="userSpaceOnUse"
       gradientTransform="matrix(0,-1,1,0,-1.5e-6,47.999998)"
       x1="1"
       x2="47" />
    <linearGradient
       inkscape:collect="always"
       xlink:href="#linearGradient3764"
       id="linearGradient3100"
       gradientUnits="userSpaceOnUse"
       gradientTransform="matrix(0,-1,1,0,-1.5e-6,47.999998)"
       x1="1"
       x2="47" />
    <linearGradient
       inkscape:collect="always"
       xlink:href="#linearGradient3764"
       id="linearGradient3107"
       gradientUnits="userSpaceOnUse"
       gradientTransform="matrix(0,-1,1,0,-1.5e-6,47.999998)"
       x1="1"
       x2="47" />
    <linearGradient
       inkscape:collect="always"
       xlink:href="#linearGradient3764"
       id="linearGradient3118"
       gradientUnits="userSpaceOnUse"
       gradientTransform="matrix(0,-1,1,0,-1.5e-6,47.999998)"
       x1="1"
       x2="47" />
  </defs>
  <g
     id="g21">
    <path
       d="m 36.31 5 c 5.859 4.062 9.688 10.831 9.688 18.5 c 0 12.426 -10.07 22.5 -22.5 22.5 c -7.669 0 -14.438 -3.828 -18.5 -9.688 c 1.037 1.822 2.306 3.499 3.781 4.969 c 4.085 3.712 9.514 5.969 15.469 5.969 c 12.703 0 23 -10.298 23 -23 c 0 -5.954 -2.256 -11.384 -5.969 -15.469 c -1.469 -1.475 -3.147 -2.744 -4.969 -3.781 z m 4.969 3.781 c 3.854 4.113 6.219 9.637 6.219 15.719 c 0 12.703 -10.297 23 -23 23 c -6.081 0 -11.606 -2.364 -15.719 -6.219 c 4.16 4.144 9.883 6.719 16.219 6.719 c 12.703 0 23 -10.298 23 -23 c 0 -6.335 -2.575 -12.06 -6.719 -16.219 z"
       opacity="0.05"
       id="path23" />
    <path
       d="m 41.28 8.781 c 3.712 4.085 5.969 9.514 5.969 15.469 c 0 12.703 -10.297 23 -23 23 c -5.954 0 -11.384 -2.256 -15.469 -5.969 c 4.113 3.854 9.637 6.219 15.719 6.219 c 12.703 0 23 -10.298 23 -23 c 0 -6.081 -2.364 -11.606 -6.219 -15.719 z"
       opacity="0.1"
       id="path25" />
    <path
       d="m 31.25 2.375 c 8.615 3.154 14.75 11.417 14.75 21.13 c 0 12.426 -10.07 22.5 -22.5 22.5 c -9.708 0 -17.971 -6.135 -21.12 -14.75 a 23 23 0 0 0 44.875 -7 a 23 23 0 0 0 -16 -21.875 z"
       opacity="0.2"
       id="path27" />
  </g>
  <path
     style="fill:url(#linearGradient3118);fill-opacity:1"
     d="M 2.09375,16.96875 C 1.3835089,19.184266 1,21.548565 1,24 c 0,12.703 10.297,23 23,23 9.394927,0 17.460632,-5.646396 21.03125,-13.71875 -1.041625,-0.48875 -2.133,-0.9745 -3.25,-1.4375 C 38.95325,30.67175 35.926,29.586 32.875,28.625 26.773,26.696 20.633,25.2105 16,24.1875 11.367,23.1715 8.25,22.625 8.25,22.625 6.32,21.984 4.91625,21.137 3.90625,20.125 2.9586535,19.177403 2.3926695,18.126042 2.09375,16.96875 z"
     id="path31"
     inkscape:connector-curvature="0"
     sodipodi:nodetypes="cssccccccc" />
  <g
     id="g33" />
  <path
     style="fill:#de2721;fill-opacity:1;fill-rule:evenodd;stroke:none"
     d="M 24.46875 1 C 24.281401 1.1370517 24.081194 1.2634216 23.90625 1.40625 C 21.55125 3.33625 20.21875 5.5 20.21875 5.5 C 19.35975 6.57 18.64125 7.1795 18.03125 7.4375 C 17.42225 7.6955 16.9655 7.64025 16.5625 7.28125 C 16.1605 6.92625 15.82475 6.293 15.59375 5.5 C 15.364649 4.7236018 15.19616 3.8041237 15.09375 2.8125 C 8.9497191 5.4017986 4.1468054 10.564478 2.09375 16.96875 C 2.3926695 18.126042 2.9586535 19.177403 3.90625 20.125 C 4.91625 21.137 6.32 21.984 8.25 22.625 C 8.25 22.625 11.367 23.1715 16 24.1875 C 20.633 25.2105 26.773 26.696 32.875 28.625 C 35.926 29.586 38.95325 30.67175 41.78125 31.84375 C 42.89825 32.30675 43.989625 32.7925 45.03125 33.28125 C 46.28851 30.438872 47 27.308073 47 24 C 47 23.151891 46.933199 22.324311 46.84375 21.5 C 44.466493 20.788736 42.561712 20.048199 41.09375 19.25 C 39.24575 18.25 38.0155 17.14475 37.3125 16.09375 C 36.6095 15.03875 36.395 14.016 36.5 13 C 36.605 11.98 37.043 11.016 37.625 10.125 C 38.207 9.23 38.93425 8.39775 39.65625 7.71875 C 39.759723 7.6208627 39.866246 7.5612321 39.96875 7.46875 C 35.935277 3.5714466 30.49192 1.1203744 24.46875 1 z "
     id="path63" />
  <path
     style="fill:#7cb216;fill-opacity:1;fill-rule:evenodd;stroke:none"
     d="M 1.09375 25.875 C 1.8993473 35.830604 9.0256206 44.012986 18.46875 46.34375 C 17.023125 44.419356 15.58364 42.473215 14.40625 40.875 C 10.66825 35.801 8.4375 32.375 8.4375 32.375 C 7.3165 30.777 5.95775 29.3875 4.46875 28.1875 C 3.4121345 27.335888 2.2901587 26.561631 1.09375 25.875 z "
     id="path59" />
  <path
     style="fill:#f9f9f9;fill-opacity:1;fill-rule:evenodd;stroke:none"
     d="M 24 1 C 20.834663 1 17.838218 1.6558901 15.09375 2.8125 C 15.198855 3.8041237 15.364649 4.7236018 15.59375 5.5 C 15.82775 6.293 16.1595 6.92225 16.5625 7.28125 C 16.9645 7.64025 17.42125 7.6955 18.03125 7.4375 C 18.64025 7.1795 19.36275 6.571 20.21875 5.5 C 20.21875 5.5 21.55025 3.33225 23.90625 1.40625 C 24.073438 1.26929 24.259569 1.1307013 24.4375 1 C 24.291999 0.997286 24.14615 1 24 1 z M 39.96875 7.46875 C 39.867234 7.5597618 39.758794 7.6225535 39.65625 7.71875 C 38.93325 8.40275 38.207 9.231 37.625 10.125 C 37.043 11.02 36.602 11.984 36.5 13 C 36.395 14.016 36.6015 15.03875 37.3125 16.09375 C 38.0155 17.14875 39.24675 18.246 41.09375 19.25 C 42.558452 20.046426 44.473975 20.791881 46.84375 21.5 C 46.24824 16.012134 43.731836 11.104794 39.96875 7.46875 z "
     id="path61" />
  <path
     style="fill:#f4c62e;fill-opacity:1;fill-rule:evenodd;stroke:none"
     d="M 23.4375 35.8125 C 21.2965 35.8125 19.89075 36.07875 19.09375 36.59375 C 18.69575 36.85175 18.46475 37.141 18.34375 37.5 C 18.22275 37.859 18.22275 38.27675 18.34375 38.71875 C 18.58575 39.60175 19.24975 40.646 20.21875 41.75 C 21.18775 42.852 22.51525 44.03875 23.90625 45.21875 C 24.582234 45.791015 25.281762 46.350332 26 46.90625 C 32.591802 46.336815 38.396137 42.982645 42.21875 38.03125 C 40.472405 37.713862 38.790029 37.566194 37.40625 37.5 C 35.21125 37.391 33.75 37.5 33.75 37.5 C 32.895 38.57 32.09375 39.36725 31.34375 39.90625 C 30.59775 40.44525 29.895 40.754 29.25 40.875 C 28.609 40.992 28.00375 40.90175 27.46875 40.71875 C 26.93375 40.53475 26.45925 40.21875 26.03125 39.84375 C 25.17625 39.09375 24.52375 38.1405 24.09375 37.3125 C 23.66375 36.4805 23.4375 35.8125 23.4375 35.8125 z "
     id="path65" />
  <g
     id="g67">
    <path
       d="m 40.03 7.531 c 3.712 4.084 5.969 9.514 5.969 15.469 0 12.703 -10.297 23 -23 23 c -5.954 0 -11.384 -2.256 -15.469 -5.969 4.178 4.291 10.01 6.969 16.469 6.969 c 12.703 0 23 -10.298 23 -23 0 -6.462 -2.677 -12.291 -6.969 -16.469 z"
       opacity="0.1"
       id="path69" />
  </g>
</svg>

<svg xmlns="http://www.w3.org/2000/svg" viewBox="0 0 48 48"><defs><clipPath><g transform="translate(0,-1004.3622)"><path d="m -24 13 c 0 1.105 -0.672 2 -1.5 2 -0.828 0 -1.5 -0.895 -1.5 -2 0 -1.105 0.672 -2 1.5 -2 0.828 0 1.5 0.895 1.5 2 z" transform="matrix(15.333333,0,0,11.5,414.99999,878.8622)" fill="#1890d0"/></g></clipPath><clipPath><g transform="translate(0,-1004.3622)"><path d="m -24 13 c 0 1.105 -0.672 2 -1.5 2 -0.828 0 -1.5 -0.895 -1.5 -2 0 -1.105 0.672 -2 1.5 -2 0.828 0 1.5 0.895 1.5 2 z" transform="matrix(15.333333,0,0,11.5,414.99999,878.8622)" fill="#1890d0"/></g></clipPath><linearGradient id="linearGradient3118" gradientUnits="userSpaceOnUse" gradientTransform="matrix(0,-1,1,0,-1.5e-6,47.999998)" x1="1" x2="47"><stop stop-color="#003774" stop-opacity="1"/><stop offset="1" stop-color="#004088" stop-opacity="1"/></linearGradient></defs><g><path d="m 36.31 5 c 5.859 4.062 9.688 10.831 9.688 18.5 c 0 12.426 -10.07 22.5 -22.5 22.5 c -7.669 0 -14.438 -3.828 -18.5 -9.688 c 1.037 1.822 2.306 3.499 3.781 4.969 c 4.085 3.712 9.514 5.969 15.469 5.969 c 12.703 0 23 -10.298 23 -23 c 0 -5.954 -2.256 -11.384 -5.969 -15.469 c -1.469 -1.475 -3.147 -2.744 -4.969 -3.781 z m 4.969 3.781 c 3.854 4.113 6.219 9.637 6.219 15.719 c 0 12.703 -10.297 23 -23 23 c -6.081 0 -11.606 -2.364 -15.719 -6.219 c 4.16 4.144 9.883 6.719 16.219 6.719 c 12.703 0 23 -10.298 23 -23 c 0 -6.335 -2.575 -12.06 -6.719 -16.219 z" opacity="0.05"/><path d="m 41.28 8.781 c 3.712 4.085 5.969 9.514 5.969 15.469 c 0 12.703 -10.297 23 -23 23 c -5.954 0 -11.384 -2.256 -15.469 -5.969 c 4.113 3.854 9.637 6.219 15.719 6.219 c 12.703 0 23 -10.298 23 -23 c 0 -6.081 -2.364 -11.606 -6.219 -15.719 z" opacity="0.1"/><path d="m 31.25 2.375 c 8.615 3.154 14.75 11.417 14.75 21.13 c 0 12.426 -10.07 22.5 -22.5 22.5 c -9.708 0 -17.971 -6.135 -21.12 -14.75 a 23 23 0 0 0 44.875 -7 a 23 23 0 0 0 -16 -21.875 z" opacity="0.2"/></g><path d="m 2.094 16.969 c -0.71 2.216 -1.094 4.58 -1.094 7.03 c 0 12.703 10.297 23 23 23 9.395 0 17.461 -5.646 21.03 -13.719 -1.042 -0.489 -2.133 -0.974 -3.25 -1.438 c -2.828 -1.172 -5.855 -2.258 -8.906 -3.219 -6.102 -1.929 -12.242 -3.415 -16.875 -4.438 -4.633 -1.016 -7.75 -1.563 -7.75 -1.563 -1.93 -0.641 -3.334 -1.488 -4.344 -2.5 -0.948 -0.948 -1.514 -1.999 -1.813 -3.156 z" fill="url(#linearGradient3118)" fill-opacity="1"/><path d="m 24.469 1 c -0.187 0.137 -0.388 0.263 -0.563 0.406 c -2.355 1.93 -3.688 4.094 -3.688 4.094 c -0.859 1.07 -1.578 1.68 -2.188 1.938 c -0.609 0.258 -1.066 0.203 -1.469 -0.156 c -0.402 -0.355 -0.738 -0.988 -0.969 -1.781 c -0.229 -0.776 -0.398 -1.696 -0.5 -2.688 c -6.144 2.589 -10.947 7.752 -13 14.156 c 0.299 1.157 0.865 2.209 1.813 3.156 c 1.01 1.012 2.414 1.859 4.344 2.5 c 0 0 3.117 0.547 7.75 1.563 c 4.633 1.023 10.773 2.509 16.875 4.438 c 3.051 0.961 6.078 2.047 8.906 3.219 c 1.117 0.463 2.208 0.949 3.25 1.438 c 1.257 -2.842 1.969 -5.973 1.969 -9.281 c 0 -0.848 -0.067 -1.676 -0.156 -2.5 c -2.377 -0.711 -4.282 -1.452 -5.75 -2.25 c -1.848 -1 -3.078 -2.105 -3.781 -3.156 c -0.703 -1.055 -0.917 -2.078 -0.813 -3.094 c 0.105 -1.02 0.543 -1.984 1.125 -2.875 c 0.582 -0.895 1.309 -1.727 2.031 -2.406 c 0.103 -0.098 0.21 -0.158 0.313 -0.25 c -4.03 -3.897 -9.477 -6.348 -15.5 -6.469 z" fill="#de2721" fill-rule="evenodd" stroke="none" fill-opacity="1"/><path d="m 1.094 25.875 c 0.806 9.956 7.932 18.14 17.375 20.469 c -1.446 -1.924 -2.885 -3.871 -4.063 -5.469 c -3.738 -5.074 -5.969 -8.5 -5.969 -8.5 c -1.121 -1.598 -2.48 -2.988 -3.969 -4.188 c -1.057 -0.852 -2.179 -1.626 -3.375 -2.313 z" fill="#7cb216" fill-rule="evenodd" stroke="none" fill-opacity="1"/><path d="m 24 1 c -3.165 0 -6.162 0.656 -8.906 1.813 c 0.105 0.992 0.271 1.911 0.5 2.688 c 0.234 0.793 0.566 1.422 0.969 1.781 c 0.402 0.359 0.859 0.414 1.469 0.156 c 0.609 -0.258 1.331 -0.867 2.188 -1.938 c 0 0 1.331 -2.168 3.688 -4.094 c 0.167 -0.137 0.353 -0.276 0.531 -0.406 c -0.146 -0.003 -0.291 0 -0.438 0 z m 15.969 6.469 c -0.102 0.091 -0.21 0.154 -0.313 0.25 c -0.723 0.684 -1.449 1.512 -2.031 2.406 c -0.582 0.895 -1.023 1.859 -1.125 2.875 c -0.105 1.016 0.102 2.039 0.813 3.094 c 0.703 1.055 1.934 2.152 3.781 3.156 c 1.465 0.796 3.38 1.542 5.75 2.25 c -0.596 -5.488 -3.112 -10.395 -6.875 -14.03 z" fill="#f9f9f9" fill-rule="evenodd" stroke="none" fill-opacity="1"/><path d="m 23.438 35.813 c -2.141 0 -3.547 0.266 -4.344 0.781 c -0.398 0.258 -0.629 0.547 -0.75 0.906 c -0.121 0.359 -0.121 0.777 0 1.219 c 0.242 0.883 0.906 1.927 1.875 3.03 c 0.969 1.102 2.297 2.289 3.688 3.469 c 0.676 0.572 1.376 1.132 2.094 1.688 c 6.592 -0.569 12.396 -3.924 16.219 -8.875 c -1.746 -0.317 -3.429 -0.465 -4.813 -0.531 c -2.195 -0.109 -3.656 0 -3.656 0 c -0.855 1.07 -1.656 1.867 -2.406 2.406 c -0.746 0.539 -1.449 0.848 -2.094 0.969 c -0.641 0.117 -1.246 0.027 -1.781 -0.156 c -0.535 -0.184 -1.01 -0.5 -1.438 -0.875 c -0.855 -0.75 -1.508 -1.703 -1.938 -2.531 c -0.43 -0.832 -0.656 -1.5 -0.656 -1.5 z" fill="#f4c62e" fill-rule="evenodd" stroke="none" fill-opacity="1"/><g><path d="m 40.03 7.531 c 3.712 4.084 5.969 9.514 5.969 15.469 0 12.703 -10.297 23 -23 23 c -5.954 0 -11.384 -2.256 -15.469 -5.969 4.178 4.291 10.01 6.969 16.469 6.969 c 12.703 0 23 -10.298 23 -23 0 -6.462 -2.677 -12.291 -6.969 -16.469 z" opacity="0.1"/></g></svg>
